X:1
T:Trzech budrysow
T:Score
T:Trzech Budrysów
%%score { ( 1 2 5 ) | ( 3 4 ) }
L:1/8
Q:1/4=110
M:4/4
K:Gmin
V:1 treble nm="Grand Piano" snm="Pno."
V:2 treble 
V:5 treble 
V:3 bass 
V:4 bass 
V:1
"^\n" z4 z2 D>D | G2 G>G B2 D>D | G2 G>G B2 AG | ^F2 A>A D2 =EF | %4
 [B,G]e/e'/ d/d'/^c/^c'/ B/b/A/a/ G/g/^F/^f/ | E/e/D/d/ C/c/B,/B/ A,/A/G,/G/ F,/F/E,/E/ | %6
 D z c/B/A/G/ d z [Ac^f]2 | [Bg]2 G,>G, G,2 z2 | [B,G] z c/B/A/G/ d z [C^F]2 | %9
 [B,G] z c/B/A/G/ d z [B,G]2 | [C^F] z g/^f/=e/d/ a z [cf]2 | [Bg]f/e/ d/c/B/A/ G z [A,CD]>[A,CD] | %12
 [B,G] z c/B/A/G/ d z [A,CD]>[A,CD] | [B,G] z c/B/A/G/ d z [Bg]>[Bg] | %14
 [A^f] z g/f/=e/d/ d' z [ca]>[cf] | [Bg]f/e/ d/c/B/A/ G z [EA]2 | [DB] z e/d/c/B/ f z [Fd]2 | %17
 [DB] z e/d/c/B/ f z [DB]2 | [EA] z B/A/G/F/ c z [Ec]2 | [DB]A/G/ F/E/D/C/ B, z [Fd]>[Fd] | %20
 [DB] z e/d/c/B/ f z [Bdb] z | [DFB] z e/d/c/B/ f z [DF]>[DB] | [EA] z B/A/G/F/ c z [Ec]>[EA] | %23
 [DB]e/e'/ d/d'/^c/^c'/ B/b/A/a/ G/g/^F/^f/ | E/e/D/d/ C/c/B,/B/ A,/A/G,/G/ F,/F/E,/E/ | %25
 D z c/B/A/G/ d z [Ac^f]2 | [Bg]2 G,>G, G,2 z2 | [B,G] z c/B/A/G/ d z [C^F]2 | %28
 [B,G] z c/B/A/G/ d z [B,G]2 | [C^F] z g/^f/=e/d/ a z [cf]2 | [Bg]f/e/ d/c/B/A/ G z [A,CD]>[A,CD] | %31
 [B,G] z c/B/A/G/ d z [A,CD]>[A,CD] | [B,G] z c/B/A/G/ d z [Bg]>[Bg] | %33
 [A^f] z g/f/=e/d/ d' z [ca]>[cf] | [Bg]f/e/ d/c/B/A/ G z [EA]2 | [DB] z e/d/c/B/ f z [Fd]2 | %36
 [DB] z e/d/c/B/ f z [DB]2 | [EA] z B/A/G/F/ c z [Ec]2 | [DB]A/G/ F/E/D/C/ B, z [Fd]>[Fd] | %39
 [DB] z e/d/c/B/ f z [Bdb] z | [DFB] z e/d/c/B/ f z [DF]>[DB] | [EA] z B/A/G/F/ c z [Ec]>[EA] | %42
 [DB]e/e'/ d/d'/^c/^c'/ B/b/A/a/ G/g/^F/^f/ | E/e/D/d/ C/c/B,/B/ A,/A/G,/G/ F,/F/E,/E/ | %44
 D z c/B/A/G/ d z [Ac^f]2 | [Bg]2 G,>G, G,2 z2 | [B,G] z c/B/A/G/ d z [C^F]2 | %47
 [B,G] z c/B/A/G/ d z [B,G]2 | [C^F] z g/^f/=e/d/ a z [cf]2 | [Bg]f/e/ d/c/B/A/ G z [A,CD]>[A,CD] | %50
 [B,G] z c/B/A/G/ d z [A,CD]>[A,CD] | [B,G] z c/B/A/G/ d z [Bg]>[Bg] | %52
 [A^f] z g/f/=e/d/ d' z [ca]>[cf] | [Bg]f/e/ d/c/B/A/ G z [EA]2 | [DB] z e/d/c/B/ f z [Fd]2 | %55
 [DB] z e/d/c/B/ f z [DB]2 | [EA] z B/A/G/F/ c z [Ec]2 | [DB]A/G/ F/E/D/C/ B, z [Fd]>[Fd] | %58
 [DB] z e/d/c/B/ f z [Bdb] z | [DFB] z e/d/c/B/ f z [DF]>[DB] | [EA] z B/A/G/F/ c z [Ec]>[EA] | %61
 [DB][Fd][Fd][Fd] [Ff][Ff][Fd][Fd] | [^Fd][Fd][Gd][Gd] [Ad][Ad][D=B][DB] | %63
 [Gc][Gc][Gc][Gc] [G^c][Gc][Gc][Gc] | [Gd][Gd][Gg][Gg] [A^f][Af][G^A=e][GAe] | %65
 [=Bd] z [=E=e]2 [Ec]2 [CA]2 |[Q:1/2=40] G2 ^FG A3[Q:1/4=30][Q:1/4=20] D || %67
[K:G][M:3/8][Q:1/4=60]"^\n\n" z [B,DG][B,DG] | z [B,D][B,DG] | z [CDA][CDA] | z [CD^G][CDFA] | %71
 z [B,D][B,DG] | [DB][CDA][B,DG] | z [DFA][Ac] | [ce][Bd][Ac] | [DB]/[DB]/[DB][CFA] | %76
 z [B,D][B,DG] | D/D/[Ac][GB] | z [D^E^G][DFA] | [B,DB][B,DA][B,DG] | z [DG][DFA] | z [DGB][B,DG] | %82
 G3[Q:1/4=50][Q:1/4=40] ||[K:Gmin][Q:1/4=50]"^\n" z [B,DG][B,DG] | z [B,D][B,DG] | z [CDA][CDA] | %86
 z [D^E^G][D^FA] | z [B,D][B,DG] | [Bd][Ac][GB] | z [^FA][Dd] |[Q:1/4=45]"^\n" DDD | %91
 z [G,B,D][^F,CE] | z [G,B,D][G,DG] | [F_A][EG][DF] | [CE][B,D][B,^C] | [B,D]3 | [A,D]3 | %97
 [G,B,][B,D][B,G] | [GB]2 [EAc] |[M:4/4][Q:1/4=80] [DBd]8- | %100
 [DBd]z/[Q:1/4=120]B,/ E/D/C/B,/ F z [FAcf] z | B, z [Bfb]2[Q:1/4=80]"^\n\n" z4 | z4 [DA]4- | %103
 [DAd]8 | z2[Q:1/4=110] [DGB]2 z2 (3z BB | (3dGG (3BDD GF/E/ D/C/B,/A,/ | G, z [Bdgb]2 z2 G,>G, | %107
 F, z [=Bdg=b]2 z2 F,>F, | =E, z [cgc']2 z2 E,>E, | ^D, z [^FAc]4 z2 | %110
[M:3/4][Q:1/4=45]"^\n" z2 [=EG=B]4- | [EGB]2 z2 z2 | z6 | z6 | z6 |[Q:1/4=80] z6 | E6 | D6- | %118
[Q:1/4=40] D2 z2 z2 ||[K:Eb][M:3/8][Q:1/4=100] EA/G/F/E/ | DBB, | EA/G/F/E/ | DBB, | EA/G/F/E/ | %124
 DBB, | EA/G/F/E/ | DBB, | z f/e/f/e/ | f/e/f/e/f/e/ | f/e/f/e/f/e/ | c'/b/c'/b/c'/b/ | %131
 c'/b/c'/b/c'/b/ | c'/b/c'/b/c'/b/ | d'/c'/d'/c'/d'/c'/ | e'/d'/c'/b/c'/d'/ | e'a/_g/f/e/ | dbB | %137
 [_GBe]a/_g/f/e/ | dbB | [_GBe]a/_g/f/e/ | dbB | [_GBe]a/_g/f/e/ | dbB | [_GBe]_c/_c'/B/b/ | %144
 A/a/_G/_g/F/f/ | E/e/_D/_d/C/c/ | _C/_c/B,/B/A,/A/ | %147
[Q:1/4=60] [_G,_G][K:bass][_D,G,B,_D][D,G,B,D] | z [_D,_G,B,_D][D,G,B,D] | z [_D,A,_C_D][D,A,CD] | %150
 z [=E,G,B,_D][F,A,_CD] | z [_G,B,_D][G,B,_G] | z [_G,B,_D][G,B,_G] | z [B,_DB][B,-DB-] | %154
 [B,B][B,DA][B,DA] | [B,EG]z[CE^F] |[Q:1/4=100] [B,EG]z[DF] | [G,E]A/G/F/E/ | DBB, | %159
 [G,E]A/G/F/E/ | DBB, | [G,E]A/G/F/E/ | DBB, | [G,E]A/G/F/E/ | DBB, | z f/e/f/e/ | f/e/f/e/f/e/ | %167
 f/e/f/e/f/e/ | c'/b/c'/b/c'/b/ | c'/b/c'/b/c'/b/ | c'/b/c'/b/c'/b/ | d'/c'/d'/c'/d'/c'/ | %172
 e'/d'/c'/b/c'/d'/ | e'a/_g/f/e/ | dbB | [_GBe]a/_g/f/e/ | dbB | [_GBe]a/_g/f/e/ | dbB | %179
 [_GBe]a/_g/f/e/ | dbB | [_GBe]_c/_c'/B/b/ | A/a/_G/_g/F/f/ | E/e/_D/_d/C/c/ | _C/_c/B,/B/A,/A/ | %185
[Q:1/4=60]"^\n" [_G,_G][K:bass][_D,G,B,_D][D,G,B,D] | z [_D,_G,B,_D][D,G,B,D] | %187
 z [_D,A,_C_D][D,A,CD] | z [=E,G,B,_D][F,A,_CD] | z [_G,B,_D][G,B,_G] | z [_G,B,_D][G,B,_G] | %191
 z [B,_DB][B,-DB-] | [B,B][B,DA][B,DA] | [B,EG]z[CE^F] | [B,EG]z[DF] | [G,E][Q:1/4=80]A/G/F/E/ | %196
 DBB, | EA/G/F/E/ | DBB, | EA/G/F/E/ | DBB, | EA/G/F/E/ | DBB, | EFG | ABA | GAG | FGF | %207
 E[DF][_DG] | AeA | GAG | FBD | EF/E/D/C/ | B,B/A/G/F/ | EF/E/D/C/ | B,B/A/G/F/ | EF/E/D/C/ | %216
 B,B/A/G/F/ |[Q:1/4=80] EF/[Q:1/4=75]"^\n"E/D/C/ |[Q:1/4=70] B, z z[Q:1/4=40]"^\n"[Q:1/4=20] | %219
[Q:1/4=65] z [Bb][Bda] | [Beg][Bf][GBe] | [FAd][EAc][EGB] | [DFB][^CEB][DFA] | [_DG][DF][DG] | %224
 [CB][CA][CF] |[Q:3/8=90] [G,B,E]3 | [^F,=A,CE]3 | [G,B,][G,E][G,G] | [EGB][GBe][Beg] | %229
 [ef]/c/[ef]/c/[ef]/c/ | [ef]/c/[ef]/c/[ef]/c/ | [ef]/B/[ef]/B/[ef]/B/ | [fa][df][Bdfb] | %233
[M:4/4] [ee']c/c'/ B/b/A/a/ G/g/F/f/ E/e/D/d/ | C/c/B,/B/ A,/A/G,/G/ F,/F/E,/E/ D,/D/C,/C/ | %235
 =B, z c/=B/=A/G/ g z [_Bdfab] z | [egc'e']z[ebe'] z Ez[EGBe] z |{/E,} E,8 |] %238
V:2
 B,8- | B,8- | B,8 | C8 | x8 | x8 | x8 | x8 | x8 | x8 | x8 | x8 | x8 | x8 | x8 | x8 | x8 | x8 | %18
 x8 | x8 | x8 | x8 | x8 | x8 | x8 | x8 | x8 | x8 | x8 | x8 | x8 | x8 | x8 | x8 | x8 | x8 | x8 | %37
 x8 | x8 | x8 | x8 | x8 | x8 | x8 | x8 | x8 | x8 | x8 | x8 | x8 | x8 | x8 | x8 | x8 | x8 | x8 | %56
 x8 | x8 | x8 | x8 | x8 | x8 | x8 | x8 | x8 | x8 | [=B,D]4 =E2 ^F2 ||[K:G][M:3/8] x3 | x3 | x3 | %70
 x3 | x3 | x3 | x3 | x3 | x3 | x3 | x3 | x3 | x3 | x3 | x3 | ^C"^\n"D_E ||[K:Gmin] x3 | x3 | x3 | %86
 x3 | x3 | x3 | x3 | x3 | x3 | x3 | x3 | x3 | x3 | x3 | x3 | x3 |[M:4/4] x8 | x8 | x8 | x8 | x8 | %104
 x8 | x8 | x8 | x8 | x8 | x8 |[M:3/4] x6 | x6 | x6 | x6 | x6 | x6 | x6 | x6 | x6 || %119
[K:Eb][M:3/8] x3 | x3 | x3 | x3 | x3 | x3 | x3 | x3 | x3 | x3 | x3 | x3 | x3 | x3 | x3 | x3 | x3 | %136
 x3 | x3 | x3 | x3 | x3 | x3 | x3 | x3 | x3 | x3 | x3 | x[K:bass] x2 | x3 | x3 | x3 | x3 | x3 | %153
 x3 | x3 | x3 | x3 | x3 | x3 | x3 | x3 | x3 | x3 | x3 | x3 | x3 | [EA][EA][EA] | [EG][EG][EG] | %168
 F=EF | x3 | x3 | x3 | x3 | x3 | x3 | x3 | x3 | x3 | x3 | x3 | x3 | x3 | x3 | x3 | x3 | %185
 x[K:bass] x2 | x3 | x3 | x3 | x3 | x3 | x3 | x3 | x3 | x3 | x3 | x3 | x3 | x3 | x3 | x3 | x3 | %202
 x3 | x3 | x3 | x3 | x3 | x3 | x3 | x3 | x3 | x3 | x3 | x3 | x3 | x3 | x3 | x3 | x3 | x3 | x3 | %221
 x3 | x3 | x3 | x3 | x3 | x3 | x3 | x3 | x3 | x3 | x3 | x3 |[M:4/4] x8 | x8 | x8 | x8 | x8 |] %238
V:3
 [G,,D,]8- | [G,,D,]8- | [G,,D,]8- | [G,,D,]8- | %4
 [G,,D,][E,E][D,D][^C,^C] [B,,B,][A,,A,][G,,G,][^F,,^F,] | %5
 [E,,E,][D,,D,][C,,C,][B,,,B,,] [A,,,A,,][G,,,G,,][F,,,F,,][E,,,E,,] | %6
 [D,,,D,,D,] z C/B,/A,/G,/ D z [D,,D,]2 | [G,,,G,,]2 [G,,,G,,]>[G,,,G,,] [G,,,G,,]2 z2 | %8
 [G,,D,] z [G,B,]>[G,B,] [G,B,] z [D,A,]2 | [G,,G,] z [G,B,]>[G,B,] [G,B,] z [G,,D,]2 | %10
 [D,,D,] z [D,A,C]>[D,A,C] [D,A,C] z D2 | G,,/G,/F,/E,/ D,/C,/B,,/A,,/ G,, z [D,^F,]>[D,F,] | %12
 [G,,D,G,] z [D,G,D]>[D,G,D] [D,G,B,D] z [D,^F,]>[D,F,] | %13
 [G,,D,G,] z [D,G,D]>[D,G,D] [D,G,B,D] z D>D | D, z [D,A,D]>[D,^F,A,D] [D,F,A,D] z F,>F, | %15
 G,,/G,/F,/E,/ D,/C,/B,,/A,,/ G,, z [F,C]2 | [B,,B,] z [B,D]>[B,D] [B,D] z F,2 | %17
 B, z [B,D]>[B,D] [B,D] z [B,,F,]2 | [C,F,] z [CE]>[CE] [CE] z F,2 | %19
 B,,/B,/A,/G,/ F,/E,/D,/C,/ B,, z [F,,F,]>[F,,F,] | %20
 [B,,B,] z [F,B,D]>[F,B,D] [F,B,D] z [F,B,DF] z | [B,,,B,,] z [B,D]>[B,D] [B,D] z [B,,F,]>[B,,F,] | %22
 [C,F,] z [CE]>[CE] [CE] z F,>[F,C] | [B,,B,][E,E][D,D][^C,^C] [B,,B,][A,,A,][G,,G,][^F,,^F,] | %24
 [E,,E,][D,,D,][C,,C,][B,,,B,,] [A,,,A,,][G,,,G,,][F,,,F,,][E,,,E,,] | %25
 [D,,,D,,D,] z C/B,/A,/G,/ D z [D,,D,]2 | [G,,,G,,]2 [G,,,G,,]>[G,,,G,,] [G,,,G,,]2 z2 | %27
 [G,,D,] z [G,B,]>[G,B,] [G,B,] z [D,A,]2 | [G,,G,] z [G,B,]>[G,B,] [G,B,] z [G,,D,]2 | %29
 [D,,D,] z [D,A,C]>[D,A,C] [D,A,C] z D2 | G,,/G,/F,/E,/ D,/C,/B,,/A,,/ G,, z [D,^F,]>[D,F,] | %31
 [G,,D,G,] z [D,G,D]>[D,G,D] [D,G,B,D] z [D,^F,]>[D,F,] | %32
 [G,,D,G,] z [D,G,D]>[D,G,D] [D,G,B,D] z D>D | D, z [D,A,D]>[D,^F,A,D] [D,F,A,D] z F,>F, | %34
 G,,/G,/F,/E,/ D,/C,/B,,/A,,/ G,, z [F,C]2 | [B,,B,] z [B,D]>[B,D] [B,D] z F,2 | %36
 B, z [B,D]>[B,D] [B,D] z [B,,F,]2 | [C,F,] z [CE]>[CE] [CE] z F,2 | %38
 B,,/B,/A,/G,/ F,/E,/D,/C,/ B,, z [F,,F,]>[F,,F,] | %39
 [B,,B,] z [F,B,D]>[F,B,D] [F,B,D] z [F,B,DF] z | [B,,,B,,] z [B,D]>[B,D] [B,D] z [B,,F,]>[B,,F,] | %41
 [C,F,] z [CE]>[CE] [CE] z F,>[F,C] | [B,,B,][E,E][D,D][^C,^C] [B,,B,][A,,A,][G,,G,][^F,,^F,] | %43
 [E,,E,][D,,D,][C,,C,][B,,,B,,] [A,,,A,,][G,,,G,,][F,,,F,,][E,,,E,,] | %44
 [D,,,D,,D,] z C/B,/A,/G,/ D z [D,,D,]2 | [G,,,G,,]2 [G,,,G,,]>[G,,,G,,] [G,,,G,,]2 z2 | %46
 [G,,D,] z [G,B,]>[G,B,] [G,B,] z [D,A,]2 | [G,,G,] z [G,B,]>[G,B,] [G,B,] z [G,,D,]2 | %48
 [D,,D,] z [D,A,C]>[D,A,C] [D,A,C] z D2 | G,,/G,/F,/E,/ D,/C,/B,,/A,,/ G,, z [D,^F,]>[D,F,] | %50
 [G,,D,G,] z [D,G,D]>[D,G,D] [D,G,B,D] z [D,^F,]>[D,F,] | %51
 [G,,D,G,] z [D,G,D]>[D,G,D] [D,G,B,D] z D>D | D, z [D,A,D]>[D,^F,A,D] [D,F,A,D] z F,>F, | %53
 G,,/G,/F,/E,/ D,/C,/B,,/A,,/ G,, z [F,C]2 | [B,,B,] z [B,D]>[B,D] [B,D] z F,2 | %55
 B, z [B,D]>[B,D] [B,D] z [B,,F,]2 | [C,F,] z [CE]>[CE] [CE] z F,2 | %57
 B,,/B,/A,/G,/ F,/E,/D,/C,/ B,, z [F,,F,]>[F,,F,] | %58
 [B,,B,] z [F,B,D]>[F,B,D] [F,B,D] z [F,B,DF] z | [B,,,B,,] z [B,D]>[B,D] [B,D] z [B,,F,]>[B,,F,] | %60
 [C,F,] z [CE]>[CE] [CE] z F,>[F,C] | [B,,B,][B,D][B,D][B,D] DD[B,D][B,D] | %62
 [A,C][A,C][G,B,][G,B,] [^F,A,][F,A,][=F,_A,][F,A,] | %63
 [=E,C][E,C][E,C][E,C] [_E,^A,][E,A,][E,A,][E,A,] | %64
 [D,=B,][D,B,][D,B,][D,B,] [D,C][D,C][D,^C][D,C] | D z ^G,2 A,2 [A,,=E,]2 | [D,,D,]8 || %67
[K:G][M:3/8] G,,2 z | G,2 z | F,2 z | D,2 z | G,2 z | D,F,G, | D,3 | [D,F,][E,G,][F,A,] | %75
 [G,B,]/[G,B,]/[G,B,]D, | G,,2 z | [D,F,A,]/[D,F,A,]/[D,F,A,][D,G,B,] | D,2 z | G,G,G, | G,B,,D, | %81
 G,, z z | [G,,_B,]3 ||[K:Gmin] [G,,D,]2 z | G,2 z | ^F,2 z | D,2 z | G,2 z | [B,D][CE][^C=E] | %89
 D2 z | [D,,A,,C,D,^F,A,][D,,G,,B,,D,=E,G,B,][D,,A,,D,=F,] | G,,2 z | [G,,D,]2 B,, | %93
 [G,,=B,,][A,,C,][B,,D,G,] | [C,E,G,][D,F,G,][E,G,] | !fermata![D,G,]3 | [D,^F,]3 | [G,,D,G,-]3 | %98
 G,3 |[M:4/4] z8 | z z/ B,,/ E,/D,/C,/B,,/ F, z [F,,F,] z | [B,,,B,,] z [D,F,B,D]2 z4 | %102
 z4 [^F,,^F,-]4 | F,8 | z2 G,2 z2 (3z B,B, | (3DG,G, (3B,D,D, G,F,/E,/ D,/C,/B,,/A,,/ | %106
 G,, z [G,B,DG]2 z2 [G,,,G,,]>[G,,,G,,] | [F,,,F,,] z [G,=B,DG]2 z2 [F,,,F,,]>[F,,,F,,] | %108
 [=E,,,=E,,] z [G,C=EG]2 z2 [E,,,E,,]>[E,,,E,,] | [^D,,,^D,,] z ^D4 [D,,^D,]>[D,,D,] | %110
[M:3/4] [=E,,=E,]2 !arpeggio![E,G,=B,] z z z | z2 [=E,G,=B,]4- | [E,G,B,]2 [C,=E,G,C]4- | %113
 [C,E,G,C]2 [=E,G,=B,]4- | [E,G,B,]2 [^C,=E,G,_B,]4 | [D,F,B,]6 | [C,F,A,]6 | [B,,F,B,]6- | %118
 [B,,F,B,]2 z2 z2 ||[K:Eb][M:3/8] E,,B,,B,, | B,,,B,,B,, | E,,B,,B,, | B,,,B,,B,, | E,,B,,B,, | %124
 B,,,B,,B,, | E,,B,,B,, | B,,,B,,B,, | [E,,E,]D,E, | [CEA][CEA][CEA] | [B,EG][B,EG][B,EG] | %130
 [A,B,F][A,B,F][A,B,F] | [G,B,E][G,B,E][G,B,E] | [_G,B,E][G,B,E][G,B,E] | [F,=A,E][F,A,E][F,A,E] | %134
 [F,A,E][F,A,C][F,A,B,] | [E,,E,][_G,B,E][G,B,E] | [B,F]B,B,, | [E,,E,][_G,B,E][G,B,E] | %138
 [B,F]B,B,, | [E,,E,][_G,B,E][G,B,E] | [B,F]B,B,, | [E,,E,][_G,B,E][G,B,E] | [B,F]B,B,, | %143
 [E,,E,][_C,_C][B,,B,] | [A,,A,][_G,,_G,][F,,F,] | [E,,E,][_D,,_D,][C,,C,] | %146
 [_C,,_C,][B,,,B,,][A,,,A,,] | [_G,,,_G,,]2 z | [_G,,,_G,,]2 z | [F,,,F,,]2 z | _D,,2 z | %151
 [_G,,,_G,,]2 z | [_G,,,_G,,]2 z | [_G,,_G,]3 | [F,,F,]3 | [E,,E,]!fermata!z=A,, | %156
 B,,z[B,,,B,,A,] | E,,B,,B,, | B,,,B,,B,, | E,,B,,B,, | B,,,B,,B,, | E,,B,,B,, | B,,,B,,B,, | %163
 E,,B,,B,, | B,,,B,,B,, | [E,,E,]D,E, | C=B,C | B,=A,B, | [A,B,][G,B,][A,B,] | %169
 [G,B,E][^F,B,E][G,B,E] | [_G,B,E][G,B,E][G,B,E] | [F,=A,E][F,A,E][F,A,E] | %172
 [F,A,E][F,A,C][F,A,B,] | [E,,E,][_G,B,E][G,B,E] | [B,F]B,B,, | [E,,E,][_G,B,E][G,B,E] | %176
 [B,F]B,B,, | [E,,E,][_G,B,E][G,B,E] | [B,F]B,B,, | [E,,E,][_G,B,E][G,B,E] | [B,F]B,B,, | %181
 [E,,E,][_C,_C][B,,B,] | [A,,A,][_G,,_G,][F,,F,] | [E,,E,][_D,,_D,][C,,C,] | %184
 [_C,,_C,][B,,,B,,][A,,,A,,] | [_G,,,_G,,]2 z | [_G,,,_G,,]2 z | [F,,,F,,]2 z | _D,,2 z | %189
 [_G,,,_G,,]2 z | [_G,,,_G,,]2 z | [_G,,_G,]3 | [F,,F,]3 | [E,,E,]!fermata!z=A,, | %194
 B,,z[B,,,B,,A,] | E,3 | [B,,F,]3 | [E,G,]3 | [B,,F,]3 | [E,G,]3 | [B,,F,]3 | [E,G,]3 | [B,,F,]3 | %203
 G,A,B, | C3 | B,3 | A,3 | G,A,B, | C3 | B,3 | A,3 | G,3 | [E,A,]3 | [E,G,]3 | [E,A,]3 | [E,G,]3 | %216
 [E,A,]3 | [E,G,]3 | [B,,F,]B,/A,/G,/F,/ | E,GF | EDE | B,3 | B,,3 | [E,B,][E,B,][E,B,] | %224
 [A,,A,][A,,A,][A,,A,] | B,,,/B,,/B,,,/B,,/B,,,/B,,/ | B,,,/B,,/B,,,/B,,/B,,,/B,,/ | %227
 B,,,/B,,/B,,,/B,,/B,,,/B,,/ | B,,,/B,,/B,,,/B,,/B,,,/B,,/ | [B,,A,][B,,A,][B,,A,] | %230
 [B,,=A,][B,,A,][B,,A,] | [B,,B,][B,,B,][B,,B,] | [B,,,B,,][B,,B,][B,,,B,,] | %233
[M:4/4] [E,,E,][C,C][B,,B,][A,,A,] [G,,G,][F,,F,][E,,E,][D,,D,] | %234
 [C,,C,][B,,,B,,][A,,,A,,][G,,,G,,] [F,,,F,,][E,,,E,,][D,,,D,,][C,,,C,,] | %235
 =B,,, z C/=B,/=A,/G,/ G z [_B,,,B,,] z | [E,,,E,,]z[G,B,EG] z [E,,,E,,]z[B,,E,G,B,] z | %237
{/E,,} [E,,,E,,]8 |] %238
V:4
 x8 | x8 | x8 | x8 | x8 | x8 | x8 | x8 | x8 | x8 | x8 | x8 | x8 | x8 | x8 | x8 | x8 | x8 | x8 | %19
 x8 | x8 | x8 | x8 | x8 | x8 | x8 | x8 | x8 | x8 | x8 | x8 | x8 | x8 | x8 | x8 | x8 | x8 | x8 | %38
 x8 | x8 | x8 | x8 | x8 | x8 | x8 | x8 | x8 | x8 | x8 | x8 | x8 | x8 | x8 | x8 | x8 | x8 | x8 | %57
 x8 | x8 | x8 | x8 | x8 | x8 | x8 | x8 | D,4 z4 | x8 ||[K:G][M:3/8] x3 | x3 | x3 | x3 | x3 | G,,3 | %73
 x3 | x3 | x3 | x3 | x3 | x3 | x3 | x3 | x3 | _E,D,^C, ||[K:Gmin] x3 | x3 | x3 | x3 | x3 | x3 | %89
 x3 | x3 | x3 | x3 | x3 | x3 | x3 | x3 | x3 | x3 |[M:4/4] x8 | x8 | x8 | x8 | x8 | x8 | x8 | x8 | %107
 x8 | x8 | x8 |[M:3/4] x6 | x6 | x6 | x6 | x6 | x6 | x6 | x6 | x6 ||[K:Eb][M:3/8] x3 | x3 | x3 | %122
 x3 | x3 | x3 | x3 | x3 | x3 | x3 | x3 | x3 | x3 | x3 | x3 | x3 | x3 | x3 | x3 | x3 | x3 | x3 | %141
 x3 | x3 | x3 | x3 | x3 | x3 | x3 | x3 | x3 | x3 | x3 | x3 | x3 | x3 | x3 | x3 | x3 | x3 | x3 | %160
 x3 | x3 | x3 | x3 | x3 | x3 | x3 | x3 | x3 | x3 | x3 | x3 | x3 | x3 | x3 | x3 | x3 | x3 | x3 | %179
 x3 | x3 | x3 | x3 | x3 | x3 | x3 | x3 | x3 | x3 | x3 | x3 | x3 | x3 | x3 | x3 | x3 | x3 | x3 | %198
 x3 | x3 | x3 | x3 | x3 | E,3- | E,3- | E,3- | E,3 | E,3- | E,3- | E,3- | E,3- | E,3 | x3 | x3 | %214
 x3 | x3 | x3 | x3 | x3 | x3 | x3 | x3 | x3 | x3 | x3 | x3 | x3 | x3 | x3 | x3 | x3 | x3 | x3 | %233
[M:4/4] x8 | x8 | x8 | x8 | x8 |] %238
V:5
 x8 | x8 | x8 | x8 | x8 | x8 | x8 | x8 | x8 | x8 | x8 | x8 | x8 | x8 | x8 | x8 | x8 | x8 | x8 | %19
 x8 | x8 | x8 | x8 | x8 | x8 | x8 | x8 | x8 | x8 | x8 | x8 | x8 | x8 | x8 | x8 | x8 | x8 | x8 | %38
 x8 | x8 | x8 | x8 | x8 | x8 | x8 | x8 | x8 | x8 | x8 | x8 | x8 | x8 | x8 | x8 | x8 | x8 | x8 | %57
 x8 | x8 | x8 | x8 | x8 | x8 | x8 | x8 | x8 | z4 C4 ||[K:G][M:3/8] x3 | x3 | x3 | x3 | x3 | x3 | %73
 x3 | x3 | x3 | x3 | x3 | x3 | x3 | x3 | x3 | x3 ||[K:Gmin] x3 | x3 | x3 | x3 | x3 | x3 | x3 | x3 | %91
 x3 | x3 | x3 | x3 | x3 | x3 | x3 | x3 |[M:4/4] x8 | x8 | x8 | x8 | x8 | x8 | x8 | x8 | x8 | x8 | %109
 x8 |[M:3/4] x6 | x6 | x6 | x6 | x6 | x6 | x6 | x6 | x6 ||[K:Eb][M:3/8] x3 | x3 | x3 | x3 | x3 | %124
 x3 | x3 | x3 | x3 | x3 | x3 | x3 | x3 | x3 | x3 | x3 | x3 | x3 | x3 | x3 | x3 | x3 | x3 | x3 | %143
 x3 | x3 | x3 | x3 | x[K:bass] x2 | x3 | x3 | x3 | x3 | x3 | x3 | x3 | x3 | x3 | x3 | x3 | x3 | %160
 x3 | x3 | x3 | x3 | x3 | x3 | x3 | x3 | x3 | x3 | x3 | x3 | x3 | x3 | x3 | x3 | x3 | x3 | x3 | %179
 x3 | x3 | x3 | x3 | x3 | x3 | x[K:bass] x2 | x3 | x3 | x3 | x3 | x3 | x3 | x3 | x3 | x3 | x3 | %196
 x3 | x3 | x3 | x3 | x3 | x3 | x3 | x3 | x3 | x3 | x3 | x3 | x3 | x3 | x3 | x3 | x3 | x3 | x3 | %215
 x3 | x3 | x3 | x3 | x3 | x3 | x3 | x3 | x3 | x3 | x3 | x3 | x3 | x3 | x3 | x3 | x3 | x3 | %233
[M:4/4] x8 | x8 | x8 | x8 | x8 |] %238

